X:1
T:Title
%%score [ ( 1 2 ) ( 3 4 ) ] { ( 5 6 ) | ( 7 8 ) }
L:1/8
Q:1/4=120
M:4/4
K:G
V:1 treble nm="Midi_74"
V:2 treble 
V:3 bass nm="Midi_74"
V:4 bass 
V:5 treble nm="Org."
V:6 treble 
V:7 bass 
V:8 bass 
V:1
"^Recte et Retro." d8 | e4 F4 | G8 || G8 | F4 E4 | c4 B4 | A8 || G8 | F4 e4 | d8 || A8 | B4 c4 | %12
"^William Henry Havergal\n(1793-1870)" E4 F4 | G8 |] %14
V:2
 G8 | (F2 E2) (D2 C2) | B,8 || D8 | D4 C4 | G4 G4 | F8 || B,8 | (C2 D2) (E2 F2) | G8 || F8 | %11
 G4 G4 | C4 D4 | D8 |] %14
V:3
 D8 | C4 (B,2 A,2) | G,8 || B,8 | (A,2 B,2) C4 | C4 D4 | D8 || G,8 | (A,2 B,2) C4 | D8 || D8 | %11
 D4 C4 | C4 (B,2 A,2) | B,8 |] %14
V:4
 B,,8 | C,4 D,4 | E,8 || G,,8 | D,4 A,4 | E,4 G,4 | D,8 || E,8 | D,4 C,4 | B,,8 || D,8 | G,4 E,4 | %12
 A,4 D,4 | G,,8 |] %14
V:5
 d8 | e4 F4 | G8 || G8 | [DF]4 E4 | c4 B4 | A8 || G8 | F4 e4 | d8 || A8 | B4 c4 | E4 [DF]4 | G8 |] %14
V:6
 [DG]8 | F2 E2 D2 C2 | B,8 || [B,D]8 | A,2 B,2 C4 | [CG]4 [DG]4 | [DF]8 || [G,B,]8 | C2 D2 E2 F2 | %9
 G8 || [DF]8 | [DG]4 [CG]4 | C4 B,2 A,2 | [B,D]8 |] %14
V:7
 x8 | C4 B,2 A,2 | x8 || x8 | x8 | x8 | x8 || x8 | A,2 B,2 C4 | D8 || x8 | x8 | x8 | x8 |] %14
V:8
 B,,8 | C,4 D,4 | [E,G,]8 || G,,8 | D,4 A,4 | E,4 G,4 | D,8 || E,8 | D,4 C,4 | B,,8 || D,8 | %11
 G,4 E,4 | A,4 D,4 | G,,8 |] %14

